**kern	**kern
*head1[head1a]	*head1[head1a]
*head1[head1b]	*head1[head1b]
*head1[head1aa]	*head1[head1aa]
*solo1[solo1a]	*solo1[solo1a]
*solo1[solo1b]	*solo1[solo1b]
*solo1[solo1aa]	*solo1[solo1aa]
*staff1	*staff1
=1-	=1-
*clefG2	*clefG2
*k[]	*k[]
*E-:	*E-:
*M4/4	*M4/4
8r	1E-:maj
*>head1a	*>head1a
{4.dd\	.
8cc\L	.
8b-\J	.
12g/L	.
12e-/	.
12c/J	.
=2||	=2||
4f/	1A-:min
8r	.
[8e-/	.
8e-/L]	.
8g/	.
8a-/	.
8f/J	.
=3	=3
8g\L	2E-:dom
8b-\	.
8cc\	.
8b-\J	.
4dd-\	1D-:dom
8cc/L	.
8g/J	.
=4	=4
4r	1C:dom
8r	.
8dd\	.
8ff\L	.
8ee-\	.
8dd\	.
8cc\J	.
=5	=5
8b/L	1F:dom
8g/	.
8e-/	.
8B/J	.
4.g/	.
8f/	.
=6	=6
8a-/L	2F:min
8b-/J	.
4g'/	.
8f/L	2B-:dom
8g/	.
8a-/	.
8b-/J	.
=7	=7
4r	2E-:maj
8r	.
[8g/	.
8g/L]	.
[8a-/	.
8a-/]	2C:dom
8g/J	.
=8	=8
8b-\L	2F:min
8cc\	.
8b-\	.
[8b-\J	.
4b-\]}	2B-:dom
4r	.
=9	=9
4r	1E-:maj
8r	.
*>head1b	*>head1b
[8g/	.
8g/L]	.
[8a-/	.
8a-/]	.
8g/J	.
=10:|!	=10:|!
8b-\L	2E-:dom
8cc\	.
8b-\	.
[8bn\J	.
4b\]	2E-:dom:#5
4r	.
=11	=11
8r	1A-:maj
{8B/	.
16c/LL	.
16e-/	.
16f/	.
16g/JJ	.
8b-/L	.
8g/J	.
16a-\LL	.
16b-\	.
16cc\	.
16ee-\JJ	.
=12||	=12||
8gg-\L	2A-:min
16ee-\L	.
16b\J	.
8a-\	.
[8ff\J	.
4.ff\]	2D-:dom
16dd\LL	.
16ee-\JJ	.
=13	=13
8ff\L	1E-:maj
8ee-\	.
8dd\	.
8cc\J	.
2b-\}	.
=14	=14
4r	2E-:maj
{16dd\LL	.
16dd-\	.
16cc\	.
16b\JJ	.
16b-/LL	2C:dom
16a-/	.
16g/	.
16f/JJ	.
16e/LL	.
16G/	.
16B-/	.
16d-/JJ	.
=15	=15
12c/L	1F:dom
12G/	.
12G#/J	.
4A/	.
8r	.
24dd\LL	.
24dd-\	.
24cc\JJ	.
8b/L	.
8g/J	.
=16	=16
8e-/L	1F:dom
8c/J	.
24g/LL	.
24a-/	.
24g/JJ	.
8f/	.
8e-/L	.
8c/J	.
12d/L	.
12f/	.
12a-/J	.
=17	=17
8cc\L	1F:min
8b\	.
8b-\	.
8a\J	.
8a-/L	.
8c/	.
8e-/	.
8g/J	.
=18	=18
8g-/L	1B-:dom
16B-/L	.
16A/J	.
8A-/	.
8B-/J	.
8f/L	.
[8b-/J	.
4b-\]}	.
=19	=19
8r	1E-:maj
*>head1aa	*>head1aa
{4.dd\	.
8cc\L	.
8b-\J	.
12g/L	.
12e-/	.
12c/J	.
=20||	=20||
4f/	1A-:min
8r	.
[8e-/	.
8e-/L]	.
8g/	.
8a-/	.
8f/J	.
=21	=21
8g\L	2E-:dom
8b-\	.
8cc\	.
8b-\J	.
4dd-\	2D-:dom
8cc/L	.
8g/J	.
=22	=22
4r	1C:dom
8r	.
8dd\	.
8ff\L	.
8ee-\	.
8dd\	.
8cc\J	.
=23	=23
8b/L	1F:dom
8g/	.
8e-/	.
8B/J	.
4.g/	.
8f/	.
=24	=24
8a-/L	2F:min
8b-/J	.
4g'/	.
8f/L	2B-:dom
8g/	.
8a-/	.
8b-/J	.
=25	=25
4r	1E-:maj
8r	.
[8g/	.
8g/L]	.
[8a-/	.
8a-/]	.
8g/J	.
=26	=26
24e-/LL	1E-:maj
24f/	.
24e-/JJ	.
8B-/L	.
8d/	.
[8f/J	.
4f/]}	.
4r	.
=27	=27
8r	1E-:maj
*>solo1a	*>solo1a
{16c/LL	.
16B/J	.
8B-/	.
8A-/J	.
8G/L	.
8B-/	.
8d/	.
8f/J	.
=28||	=28||
8e-/L	1A-:min
8B-/	.
8d-/	.
[8Bn/J	.
8B/L]	.
8A/	.
8B-/	.
8A-/J	.
=29	=29
4G/}	2E-:dom
4r	.
2r	2D-:dom
=30	=30
8r	1C:dom
{16dd\LL	.
16cc\J	.
8b-\	.
8a-\J	.
8g/L	.
8f/	.
8e/	.
16d/L	.
16d-/JJ	.
=31	=31
8c/L	1F:dom
8B-/J	.
12A/L	.
12c/	.
12e-/J	.
8dd\L	.
8b\	.
8cc\	.
8gg\J	.
=32	=32
8b-/L	2F:min
8g/	.
8a-/	.
[8ff#/J	.
8ff#\]	2B-:dom
32dd\LLL	.
32cc\	.
32b-\	.
32an\JJJ	.
4a-/	.
=33	=33
8r	1E-:dom
8f#/	.
12g\L	.
12b-\	.
12dd\J	.
8ff\L	.
8ee-\	.
8dd\	.
8cc\J	.
=34	=34
8b-/L	2F:min
8a/	.
8a-/	.
8c/J	.
4g/	2B-:dom
4b-\	.
=35	=35
8f/L	1E-:maj
8f/	.
8f/	.
8f/J}	.
4f/	.
4r	.
=36||	=36||
4r	1A-:min
8r	.
{8e-/	.
8f#/L	.
8g/	.
8a-/	.
8an/J	.
=37	=37
8b-/L	2E-:dom
8a-/J	.
24g/LL	.
24a-/	.
24g/JJ	.
8f/	.
8e-/L	2D-:dom
8B-/	.
8d-/	.
[8c/J	.
=38	=38
8c/L]	1C:dom
8B-/	.
8A-/	.
16G/L	.
16F/JJ	.
8E/L	.
8G/	.
8B-/	.
8d-/J	.
=39	=39
8c/L	1F:dom
8B-/J	.
16A/LL	.
16c/	.
16e-/	.
16g/JJ	.
8dd\L	.
8cc\J}	.
4r	.
=40	=40
4r	2F:min
8r	.
{8c/	.
4g/	2B-:dom
8b-/L	.
8a-/J	.
=41	=41
8g/L	1E-:maj
8f/	.
8e-/	.
8B-/J	.
4Bn/	.
8A-/L	.
8G-/J	.
=42	=42
8G/L	1E-:dom
[8e-/J	.
2e-/]}	.
4r	.
=43	=43
8r	1A-:maj
*>solo1b	*>solo1b
{8B/	.
12c/L	.
12e-/	.
12g/J	.
8b-/L	.
8a-/J	.
4r	.
=44||	=44||
8r	1A-:min
8f/	.
12a-\L	.
12b\	.
12ee-\J	.
8gg-\L	.
8dd\J	.
4r	.
=45	=45
8r	1E-:maj
4.ff\	.
8ee-\L	.
8dd\J	.
24cc\LL	.
24dd\	.
24cc\JJ	.
8b\	.
=46	=46
8b-/L	2E-:maj
8a-/	.
8g/	.
8f/J	.
8e/L	2C:dom
8g/	.
8b-/	.
[8dd/J	.
=47	=47
4dd\]	1F:dom
24cc\LL	.
24dd\	.
24cc\JJ	.
8b-\	.
8a/L	.
8g/	.
8f/	.
8e/J	.
=48	=48
8e-/L	1F:dom
8g/	.
8d/	.
8c/J	.
8f/L	.
8e-/	.
8d/	.
8c/J	.
=49	=49
8e-/L	1F:min
8G/J	.
16A-/LL	.
16c/	.
16e-/	.
16g/JJ	.
8b-/L	.
8a-/J	.
12e-/L	.
12c/	.
12A-/J	.
=50	=50
8g/L	1B-:dom:#5
[8g-/J	.
2g-/]}	.
4r	.
=51	=51
4r	1E-:maj
8r	.
*>solo1aa	*>solo1aa
{[8d/	.
4d/]	.
8f/L	.
8d/J	.
=52||	=52||
8e-/L	1A-:min
8c#/J	.
12d/L	.
12f/	.
12a-/J	.
12b\L	.
12cc\	.
12b\J	.
8b-/L	.
8a-/J	.
=53	=53
8g/L	2E-:dom
8f/	.
8e-/	.
8B-/J	.
8d-/L	2D-:dom
8Bn/	.
8c/	.
[8a-/J	.
=54	=54
8a-/L]	1C:dom
16g/L	.
16f/J	.
8e/	.
8G/J	.
8B-/L	.
8d-/	.
8c/	.
8B-/J	.
=55	=55
16A/LL	1F:dom
16c/	.
16e-/	.
16g/J	.
8dd/	.
8cc/J}	.
2r	.
=56	=56
2r	2F:min
{8b-\L	2B-:dom
8cc\	.
8ee-\	.
[8dd-\J	.
=57	=57
8dd-\L]	1E-:maj
16ee-\L	.
16dd-\J	.
8b-\	.
8cc\J	.
8b-/L	.
8a/	.
8a-/	.
8g/J	.
=58	=58
8f/L	2F:min
8e-/J	.
12d/L	.
12f/	.
12a-/J	.
12b\L	2B-:dom
12dd-\	.
12b\J	.
8b-/L	.
8a-/J	.
=59	=59
8g/L	1E-:maj
[8B-/J	.
2B-/]}	.
4r	.
==	==
*-	*-
